src/icons/main-move.svg

<svg enable-background="new 0 0 14 14" viewBox="0 0 14 14" xmlns="http://www.w3.org/2000/svg"><path d="m13.8 6.5-2.1-2.1c-.1-.1-.3-.2-.5-.2-.4 0-.7.3-.7.7 0 .2.1.4.2.5l.9.9h-3.9v-3.9l.9.9c.1.1.3.2.5.2.4 0 .7-.3.7-.7 0-.2-.1-.4-.2-.5l-2.1-2.1c-.1-.1-.3-.2-.5-.2s-.4.1-.5.2l-2.1 2.1c-.1.1-.2.3-.2.5 0 .4.3.7.7.7.2 0 .4-.1.5-.2l.9-.9v3.9h-3.9l.9-.9c.1-.1.2-.3.2-.5 0-.4-.3-.7-.7-.7-.2 0-.4.1-.5.2l-2.1 2.1c-.1.1-.2.3-.2.5s.1.4.2.5l2.1 2.1c.1.1.3.2.5.2.4 0 .7-.3.7-.7 0-.2-.1-.4-.2-.5l-.9-.9h3.9v3.9l-.9-.9c-.1-.1-.3-.2-.5-.2-.4 0-.7.3-.7.7 0 .2.1.4.2.5l2.1 2.1c.1.1.3.2.5.2s.4-.1.5-.2l2.1-2.1c.1-.1.2-.3.2-.5 0-.4-.3-.7-.7-.7-.2 0-.4.1-.5.2l-.9.9v-3.9h3.9l-.9.9c-.1.1-.2.3-.2.5 0 .4.3.7.7.7.2 0 .4-.1.5-.2l2.1-2.1c.1-.1.2-.3.2-.5s-.1-.4-.2-.5z" fill="#4d5969"/></svg>

<?xml version="1.0" encoding="utf-8"?>
<!-- Generator: Adobe Illustrator 20.1.0, SVG Export Plug-In . SVG Version: 6.00 Build 0)  -->
<svg version="1.1" id="Layer_1" xmlns="http://www.w3.org/2000/svg" xmlns:xlink="http://www.w3.org/1999/xlink" x="0px" y="0px"
	 viewBox="0 0 14 14" style="enable-background:new 0 0 14 14;" xml:space="preserve">
<style type="text/css">
	.st0{fill:#4D5969;}
</style>
<title>HDL/Icon/Standard/move</title>
<desc>Created with Sketch.</desc>
<g id="Colors">
	<g id="Main-Icons" transform="translate(-623.000000, -1111.000000)">
		<g id="Move" transform="translate(602.000000, 1093.000000)">
			<g id="HDL_x2F_Icon_x2F_Standard_x2F_move" transform="translate(21.000000, 18.000000)">
				<path id="Path" class="st0" d="M13.8,6.5l-2.1-2.1c-0.1-0.1-0.3-0.2-0.5-0.2c-0.4,0-0.7,0.3-0.7,0.7c0,0.2,0.1,0.4,0.2,0.5
					l0.9,0.9H7.7V2.4l0.9,0.9c0.1,0.1,0.3,0.2,0.5,0.2c0.4,0,0.7-0.3,0.7-0.7c0-0.2-0.1-0.4-0.2-0.5L7.5,0.2C7.4,0.1,7.2,0,7,0
					S6.6,0.1,6.5,0.2L4.4,2.3C4.3,2.4,4.2,2.6,4.2,2.8c0,0.4,0.3,0.7,0.7,0.7c0.2,0,0.4-0.1,0.5-0.2l0.9-0.9v3.9H2.4l0.9-0.9
					c0.1-0.1,0.2-0.3,0.2-0.5c0-0.4-0.3-0.7-0.7-0.7c-0.2,0-0.4,0.1-0.5,0.2L0.2,6.5C0.1,6.6,0,6.8,0,7s0.1,0.4,0.2,0.5l2.1,2.1
					c0.1,0.1,0.3,0.2,0.5,0.2c0.4,0,0.7-0.3,0.7-0.7c0-0.2-0.1-0.4-0.2-0.5L2.4,7.7h3.9v3.9l-0.9-0.9c-0.1-0.1-0.3-0.2-0.5-0.2
					c-0.4,0-0.7,0.3-0.7,0.7c0,0.2,0.1,0.4,0.2,0.5l2.1,2.1C6.6,13.9,6.8,14,7,14s0.4-0.1,0.5-0.2l2.1-2.1c0.1-0.1,0.2-0.3,0.2-0.5
					c0-0.4-0.3-0.7-0.7-0.7c-0.2,0-0.4,0.1-0.5,0.2l-0.9,0.9V7.7h3.9l-0.9,0.9c-0.1,0.1-0.2,0.3-0.2,0.5c0,0.4,0.3,0.7,0.7,0.7
					c0.2,0,0.4-0.1,0.5-0.2l2.1-2.1C13.9,7.4,14,7.2,14,7S13.9,6.6,13.8,6.5z"/>
			</g>
		</g>
	</g>
</g>
</svg>
